X:18
T:La petite Jeanneton
M:3
L:1/4
K:Cm
%%staves [1 3]
V:1
c=B2 | c2d | ue{d}c2 | !!d2d | c=B2 | c2d | ue{d}c2 |1 !!d3 :|2 !!d3 | 
dd2 | g2f | e!!d2 | !!c2c | cc2 | f2e | !!dc2 | !!=B3 | 
edc | !!d3 | G>A=B | uc2c | edc | !!d3 | G>A=B | uc3 |]
V:2
CG,2 | C2=B, | C_A,2 | G,>_A,G,/F,/ | E,D,2 | C,2=B,, | C,_A,,2 |1 G,,>G,A,/B,/ :|2 G,>(D,E,/F,/) | G,F,2 | E,2D, | C,=B,,G,, | C,2C, | 
F,E,2 | D,2C, | =B,,C,2 | G,/_A,/G,/F,/E,/D,/ | C,=B,C, | G,,>D,E,/F,/ | G,2F, | E,/D,/E,/F,/E,/D,/ | C,=B,,C, | G,,G,/_A,/G,/F,/ | E,/F,/G,G,, | C,3 |]
V:3
c'g2 | c'2=b | c'_a2 | g>_ag/2f/2 | ed2 | c2=B | c_A2 | G>ga/2b/2 :| g>(de/2f/2) | gf2 | e2d | c=BG | c2c | 
fe2 | d2c | =Bc2 | g/2_a/2g/2f/2e/2d/2 | c=Bc | G>de/2f/2 | g2f | e/2d/2e/2f/2e/2d/2 | c=Bc | Gg/2_a/2g/2f/2 | e/2f/2gG | c3 |]
